!!!OTL: Auf, Brueder, lasst uns Rosen pfluecken.
!!!OTL-incipit: AUF BRUEDER LASST UNS ROSEN PFLUECKEN
!!!COM: Studentenweise
!!!ARE: Europa, Mitteleuropa, Deutschland
!!!SCT: F0542
!!!TXL: @@DE
!!!YEM: Copyright 1995, estate of Helmut Schaffrath.
**kern	**text
*ICvox	*
*M2/4	*
*k[f#c#g#]	*
*A:	*
=1	=1
!LO:TX:a:t=Munter.	!
!LO:TX:a:t=P:only the highest voice encoded:problem	!
{4a	Auf,
8a	Brüder,
8a	.
=2	=2
4a'	laßt
4cc#'/	uns
=3	=3
4b'/	Ro-
4ee'/	-ſen
=4	=4
4cc#'/	pflücken,
4a'}	.
=5	=5
{4b/	noch
8b/	blühen
8b/	.
=6	=6
4.b/	ſie
8a	für
=7	=7
4g#	uns
4f#	ſo
=8	=8
4e	ſchön!
4r}	.
=9	=9
{4a	Laßt
8a	uns
8a	mit
=10	=10
4a'	Freu-
4cc#'/	-de
=11	=11
4b'/	in
4ee'/	den
=12	=12
4cc#'/	Blicken
4a'}	.
=13	=13
{4b/	nach
8b/	lie-
8b/	-be-
=14	=14
4.b/	-vol-
8a	-len
=15	=15
4g#	Mädchen
4f#	.
=16	=16
4e	ſehn!
4r}	.
=17	=17
{4cc#/	Sie
8cc#/	ſind
8cc#/	uns
=18	=18
(>4cc#/	al-
8b/)	.
8cc#/	-lent-
=19	=19
4dd/	-hal-
4cc#/	-ben
=20	=20
2b/}	nah,
=21	=21
{4ee/	drum,
8ee/	Brüder,
8ee/	.
=22	=22
4.ee/	lu-
8cc#/	-ſtig,
=23	=23
8dd/	tral-
8cc#/	-le-
8dd/	-ral-
8ee/	-le-
=24	=24
2ff#/}	-ra!
=25	=25
{4ee/	drum,
8ee/	Brüder,
8ee/	.
=26	=26
4.ee/	lu-
8cc#/	-ſtig,
=27	=27
8b/	tral-
8a	-le-
8b/	-ral-
8cc#/	-le-
=28	=28
4a	-ra!
4r}	.
==	==
!!!AGN: Studenten - Lied, Geselligkeit
!!!ONB: ESAC (Essen Associative Code) Database: FINK
!!!AMT: simple duple
!!!AIN: vox
!!!EED: Helmut Schaffrath
!!!EEV: 1.0
!!!RDF**kern: > = above
!!!GTL: Studentenlieder
!!Text: Studentenlied
!!!source: Musikalischer Hausschatz der Deutschen. Eine Sammlung von über 1000 Liedern und Gesängen mit Singstimmen und Klavierbegleitung. Leipzig, Litterarisches Verlags-Haus.
!!!page: 347
!!!URL-scan: https://www.digitale-sammlungen.de/en/view/bsb11144622?page=325
!!!ENC: Anna Maria Matuszewska
!!!EEV: 2024/08/02
*-	*-
